X: 33071
T: Primrose Girl, The
R: reel
M: 4/4
K: Gmajor
DEF|G2 G2 dGBA|Gggf gdBA|GBAG E2 AB|cBcA GFED|
G2 BG dGBA|Gggf gdBA|GBAG E2 AB|1 cAFA G:|2 cAFA G3 f||
|:g2 eg fddf|g2 ag bgef|g2 eg fddc|BdAc BGGf|
g2 eg fddf|g2 ag bgef|gbeg fddc|BdAc BG G2:|

